arkscan/icons/switchain.svg

<svg viewBox="0 0 18 18" fill="none" xmlns="http://www.w3.org/2000/svg">
  <path
    d="M10.3846 5.53846C11.4907 5.53846 12.3948 6.4031 12.458 7.49335L12.4615 7.61539V9.34615H10.3846V7.61539H2.07692V15.9231H10.3846V13.5H12.4615V15.9231C12.4615 17.0292 11.5969 17.9333 10.5066 17.9965L10.3846 18H2.07692C0.970836 18 0.0666963 17.1354 0.00352571 16.0451L0 15.9231V7.61539C0 6.5093 0.864637 5.60516 1.95489 5.54199L2.07692 5.53846H10.3846ZM7.61539 12.4615C6.5093 12.4615 5.60516 11.5969 5.54199 10.5066L5.53846 10.3846V8.65385H7.61539V10.3846H15.9231V2.07692H7.61539V4.5H5.53846V2.07692C5.53846 0.970836 6.4031 0.0666963 7.49335 0.00352571L7.61539 0H15.9231C17.0292 0 17.9333 0.864637 17.9965 1.95489L18 2.07692V10.3846C18 11.4907 17.1354 12.3948 16.0451 12.458L15.9231 12.4615H7.61539Z"
    fill="#622BD7" />
</svg>

<svg viewBox="0 0 18 18" fill="none" xmlns="http://www.w3.org/2000/svg"><path d="M10.385 5.538c1.106 0 2.01.865 2.073 1.955l.003.122v1.731h-2.076v-1.73H2.077v8.307h8.308V13.5h2.076v2.423c0 1.106-.864 2.01-1.954 2.074l-.122.003H2.077a2.077 2.077 0 0 1-2.073-1.955L0 15.923V7.615c0-1.106.865-2.01 1.955-2.073l.122-.004h8.308Zm-2.77 6.923a2.077 2.077 0 0 1-2.073-1.954l-.004-.122V8.654h2.077v1.73h8.308V2.078H7.615V4.5H5.538V2.077c0-1.106.865-2.01 1.955-2.073L7.615 0h8.308c1.106 0 2.01.865 2.074 1.955l.003.122v8.308c0 1.106-.865 2.01-1.955 2.073l-.122.003H7.615Z" fill="#622BD7"/></svg>
